!!!COM: Beethoven, Ludwig van
!!!CDT: 1770///-1827///
!!!OTL: Piano Sonata no. 14 in C-sharp minor ("Moonlight"), mvmt. 1
!!!ODT: 1801///
!!!ODE: Gr&auml;fin Giulietta Guicciardi
!!!OMD: Adagio sostenuto
!!!OPS: Op. 27
!!!ONM: No. 2
!!!OMV: Mvmt. 1
**kern	**kern	**dynam
*staff2	*staff1	*staff1
*Ipiano	*Ipiano	*Ipiano
=1-	=1-	=1-
*clefF4	*clefG2	*clefG2
*k[f#c#g#d#]	*k[f#c#g#d#]	*k[f#c#g#d#]
*c#:	*c#:	*c#:
*M2/2	*M2/2	*M2/2
*MM54	*MM54	*MM54
1CC# 1C#	12G#/L	pp
.	12c#/	.
.	12e/J	.
.	12G#/L	.
.	12c#/	.
.	12e/J	.
.	12G#/L	.
.	12c#/	.
.	12e/J	.
.	12G#/L	.
.	12c#/	.
.	12e/J	.
=2	=2	=2
1BBB 1BB	12G#/L	.
.	12c#/	.
.	12e/J	.
.	12G#/L	.
.	12c#/	.
.	12e/J	.
.	12G#/L	.
.	12c#/	.
.	12e/J	.
.	12G#/L	.
.	12c#/	.
.	12e/J	.
=3	=3	=3
2AAA/ 2AA/	12A/L	.
.	12c#/	.
.	12e/J	.
.	12A/L	.
.	12c#/	.
.	12e/J	.
2FFF#/ 2FF#/	12A/L	.
.	12dn/	.
.	12f#/J	.
.	12A/L	.
.	12d/	.
.	12f#/J	.
=4	=4	=4
2GGG#/ 2GG#/	12G#/L	.
.	12B#/	.
.	12f#/J	.
.	12G#/L	.
.	12c#/	.
.	12e/J	.
2GGG#/ 2GG#/	12G#/L	.
.	12c#/	.
.	12d#/J	.
.	12F#/L	.
.	12B#/	.
.	12d#/J	.
=5	=5	=5
*	*^	*
1CC# 1GG# 1C#	2r	12E\L	.
.	.	12G#\	.
.	.	12c#\J	.
.	.	12G#\L	.
.	.	12c#\	.
.	.	12e\J	.
.	4r	12G#\L	.
.	.	12c#\	.
.	.	12e\J	.
.	8.g#/L	12G#\L	pp
.	.	12c#\	.
.	.	12e\J	.
.	16g#/Jk	.	.
=6	=6	=6	=6
1BBB# 1GG# 1BB#	2.g#/	12G#\L	.
.	.	12d#\	.
.	.	12f#\J	.
.	.	12G#\L	.
.	.	12d#\	.
.	.	12f#\J	.
.	.	12G#\L	.
.	.	12d#\	.
.	.	12f#\J	.
.	8.g#/L	12G#\L	.
.	.	12d#\	.
.	.	12f#\J	.
.	16g#/Jk	.	.
=7	=7	=7	=7
2CC#/ 2C#/	(2g#/	12G#\L	.
.	.	12c#\	.
.	.	12e\J	.
.	.	12G#\L	.
.	.	12c#\	.
.	.	12e\J	.
2FFF#/ 2FF#/	2a/	12A\L	.
.	.	12c#\	.
.	.	12f#\J	.
.	.	12A\L	.
.	.	12c#\	.
.	.	12f#\J	.
=8	=8	=8	=8
2BBB/ 2BB/	2g#/	12G#\L	.
.	.	12B\	.
.	.	12e\J	.
.	.	12G#\L	.
.	.	12B\	.
.	.	12e\J	.
2BBB/ 2BB/	4f#/	12A\L	.
.	.	12B\	.
.	.	12d#\J	.
.	4b/	12A\L	.
.	.	12B\	.
.	.	12d#\J	.
=9	=9	=9	=9
1EE 1E	4e/)	12G#\L	.
.	.	12B\	.
.	.	12e\J	.
.	4r	12G#\L	.
.	.	12B\	.
.	.	12e\J	.
.	2r	12G#\L	.
.	.	12B\	.
.	.	12e\J	.
.	.	12G#\L	.
.	.	12B\	.
.	.	12e\J	.
=10	=10	=10	=10
1EE 1E	2r	12Gn\L	.
.	.	12B\	.
.	.	12e\J	.
.	.	12G\L	.
.	.	12B\	.
.	.	12e\J	.
.	4r	12G\L	.
.	.	12B\	.
.	.	12e\J	.
.	8.gn/L	12G\L	.
.	.	12B\	.
.	.	12e\J	.
.	16g/Jk	.	.
=11	=11	=11	=11
1DDn 1Dn	2.gn/	12Gn\L	.
.	.	12B\	.
.	.	12fn\J	.
.	.	12G\L	.
.	.	12B\	.
.	.	12f\J	.
.	.	12G\L	.
.	.	12B\	.
.	.	12f\J	.
.	8.g/L	12G\L	.
.	.	12B\	.
.	.	12f\J	.
.	16g/Jk	.	.
=12	=12	=12	=12
(4CCn/ 4Cn/	(2.gn/	12Gn\L	.
.	.	12cn\	.
.	.	12e\J	.
4BBB/ 4BB/	.	12G\L	.
.	.	12c\	.
.	.	12e\J	.
2AAA#/) 2AA#/	.	12G\L	.
.	.	12c#\	.
.	.	12e\J	.
.	4f#/)	12F#\L	.
.	.	12c#\	.
.	.	12e\J	.
*	*v	*v	*
=13	=13	=13
*^	*	*
12F#/L	(2BBB\ 2BB\	(2f#/	.
12B/	.	.	.
12dn/J	.	.	.
12F#/L	.	.	.
12B/	.	.	.
12d/J	.	.	.
12Gn/L	4EE\	4gn/	.
12B/	.	.	.
12c#/J	.	.	.
12E/L	4GGn\)	4e/)	.
12B/	.	.	.
12c#/J	.	.	.
=14	=14	=14	=14
12F#/L	2FF#\	2f#/	.
12B/	.	.	.
12dn/J	.	.	.
12F#/L	.	.	.
12B/	.	.	.
12d/J	.	.	.
12F#/L	2FFF#\ 2FF#\	2f#/	.
12A#/	.	.	.
12c#/J	.	.	.
12F#/L	.	.	.
12A#/	.	.	.
12c#/J	.	.	.
*v	*v	*	*
=15	=15	=15
*	*^	*
[1BBB [1BB	4B/	12B\L	.
.	.	12dn\	.
.	.	12f#\J	.
.	4r	12B\L	.
.	.	12d\	.
.	.	12f#\J	.
.	4r	12B\L	.
.	.	12d#\	.
.	.	12f#\J	.
.	(4b/	12B\L	.
.	.	12d#\	.
.	.	12f#\J	.
=16	=16	=16	=16
4BBB/] 4BB/]	2.ccn/	12B\L	.
.	.	12e\	.
.	.	12gn\J	.
4EE/ 4E/	.	12B\L	.
.	.	12e\	.
.	.	12g\J	.
4GGn/ 4Gn/	.	12B\L	.
.	.	12e\	.
.	.	12g\J	.
4EE/ 4E/	4a#/	12B\L	.
.	.	12e\	.
.	.	12g\J	.
*	*v	*v	*
=17	=17	=17
*k[f#c#g#d#]	*k[f#c#g#d#]	*k[f#c#g#d#]
*	*^	*
[1BBB [1BB	2.b/)	12B\L	.
.	.	12d#\	.
.	.	12f#\J	.
.	.	12B\L	.
.	.	12d#\	.
.	.	12f#\J	.
.	.	12B\L	.
.	.	12d#\	.
.	.	12f#\J	.
.	(4b/	12B\L	.
.	.	12d#\	.
.	.	12f#\J	.
=18	=18	=18	=18
4BBB/] 4BB/]	2.ccn/	12B\L	.
.	.	12e\	.
.	.	12gn\J	.
4EE/ 4E/	.	12B\L	.
.	.	12e\	.
.	.	12g\J	.
4GGn/ 4Gn/	.	12B\L	.
.	.	12e\	.
.	.	12g\J	.
4EE/ 4E/	4a#/	12B\L	.
.	.	12e\	.
.	.	12g\J	.
=19	=19	=19	=19
2BBB/ 2BB/	2b/)	12B\L	.
.	.	12d#\	.
.	.	12f#\J	.
.	.	12B\L	.
.	.	12d#\	.
.	.	12f#\J	.
2GGG#/ 2GG#/	2b/	12B\L	.
.	.	12dn\	.
.	.	12e#\J	.
.	.	12B\L	.
.	.	12d\	.
.	.	12e#\J	.
=20	=20	=20	=20
2EEE#/ 2EE#/	(2b/	12B\L	.
.	.	12c#\	.
.	.	12g#\J	.
.	.	12B\L	.
.	.	12c#\	.
.	.	12g#\J	.
2FFF#/ 2FF#/	2an/)	12A\L	.
.	.	12c#\	.
.	.	12f#\J	.
.	.	12A\L	.
.	.	12c#\	.
.	.	12f#\J	.
*	*v	*v	*
=21	=21	=21
*^	*	*
12Gn/L	2BBB\ 2BB\	(2gn/	.
12B/	.	.	.
12dn/J	.	.	.
12G/L	.	.	.
12B/	.	.	.
12d/J	.	.	.
12F#/L	2BBB#\ 2BB#\	2f#/)	.
12A/	.	.	.
12d#/J	.	.	.
12F#/L	.	.	.
12A/	.	.	.
12d#/J	.	.	.
=22	=22	=22	=22
12C#/L	2CC#\	2c#/	.
12F#/	.	.	.
12A/J	.	.	.
12C#/L	.	.	.
12F#/	.	.	.
12A/J	.	.	.
12C#/L	2CC#\	4c#/	.
12F#/	.	.	.
12G#/J	.	.	.
12C#/L	.	4c#/	.
12E#/	.	.	.
12G#/J	.	.	.
*v	*v	*	*
=23	=23	=23
*	*^	*
1FFF# 1CC# 1FF#	4F#/	12F#\L	.
.	.	12A\	.
.	.	12c#\J	.
.	4r	12A\L	.
.	.	12c#\	.
.	.	12f#\J	.
.	4r	12c#\L	.
.	.	12f#\	.
.	.	12a\J	.
.	8.cc#/L	12c#\L	.
.	.	12f#\	.
.	.	12a\J	.
.	16cc#/Jk	.	.
=24	=24	=24	=24
1EE# 1C# 1E#	2.cc#/	12c#\L	.
.	.	12g#\	.
.	.	12b\J	.
.	.	12c#\L	.
.	.	12g#\	.
.	.	12b\J	.
.	.	12c#\L	.
.	.	12g#\	.
.	.	12b\J	.
.	8.cc#/L	12c#\L	.
.	.	12g#\	.
.	.	12b\J	.
.	16cc#/Jk	.	.
=25	=25	=25	=25
(2FF#/ 2F#/	2cc#/	12c#\L	.
.	.	12f#\	.
.	.	12a\J	.
.	.	12c#\L	.
.	.	12f#\	.
.	.	12a\J	.
4DD#/ 4D#/	(4b#/	12B#\L	.
.	.	12f#\	.
.	.	12a\J	.
4CC#/) 4C#/	4cc#/)	12c#\L	.
.	.	12f#\	.
.	.	12a\J	.
=26	=26	=26	=26
2.BBB#/ 2.GG#/ 2.BB#/	2.dd#/	12d#\L	.
.	.	12f#\	.
.	.	12g#\J	.
.	.	12d#\L	.
.	.	12f#\	.
.	.	12g#\J	.
.	.	12d#\L	.
.	.	12f#\	.
.	.	12g#\J	.
4BBB#/ 4GG#/ 4BB#/	4dd#/	12d#\L	.
.	.	12f#\	.
.	.	12g#\J	.
=27	=27	=27	=27
(2CC#/ 2GG#/ 2C#/	(2ee/	12e\L	.
.	.	12g#\	.
.	.	12cc#\J	.
.	.	12e\L	.
.	.	12g#\	.
.	.	12cc#\J	.
4FFF#/ 4FF#/	4dd#/	12d#\L	.
.	.	12f#\	.
.	.	12a\J	.
4FFF##/) 4FF##/	4cc#/)	12c#\L	.
.	.	12e\	.
.	.	12a#\J	.
=28	=28	=28	=28
1GGG# 1GG#	4r	12b#\L	p
.	.	12B#\	.
.	.	12d#\J	.
.	(4g#/	12g#\L	.
.	.	12B#\	.
.	.	12d#\J	.
.	4a/	12a\L	.
.	.	12B#\	.
.	.	12d#\J	.
.	4f#/	12f#\L)	.
.	.	12B#\	.
.	.	12d#\J	.
*	*v	*v	*
=29	=29	=29
*^	*	*
4r	1GGG# 1GG#	12r	.
.	.	12B#/L	.
.	.	12d#/J	.
(4G#\	.	12G#/L	.
.	.	12B#/	.
.	.	12d#/J	.
4A\	.	12A/L	.
.	.	12B#/	.
.	.	12d#/J	.
4F#\)	.	12F#/L	.
.	.	12B#/	.
.	.	12d#/J	.
*v	*v	*	*
=30	=30	=30
*	*^	*
1GGG# 1GG#	4r	12E\L	.
.	.	12e\	.
.	.	12g#\J	.
.	(4cc#/	12cc#\L	.
.	.	12e\	.
.	.	12g#\J	.
.	4ee/	12ee\L	.
.	.	12e\	.
.	.	12g#\J	.
.	4cc#/	12cc#\L)	.
.	.	12e\	.
.	.	12g#\J	.
*	*v	*v	*
=31	=31	=31
*^	*	*
*	*^	*	*
4r	12r	1GGG# 1GG#	1r	.
*	*v	*v	*	*
.	12E/L	.	.
.	12G#/J	.	.
(4c#\	12c#/L	.	.
.	12E/	.	.
.	12G#/J	.	.
4e\	12e/L	.	.
.	12E/	.	.
.	12G#/J	.	.
4c#\	12c#/L)	.	.
.	12E/	.	.
.	12G#/J	.	.
=32	=32	=32	=32
12D#/L	1GGG# 1GG#	4r	.
12A/	.	.	.
12F#/J	.	.	.
4r	.	12B#/L	.
.	.	12A/	.
.	.	12d#/J	.
4r	.	12B#/L	.
.	.	12f#/	.
.	.	12d#/J	.
4r	.	12a/L	.
.	.	12f#/	.
.	.	12b#/J	.
=33	=33	=33	=33
12E/L	1GGG# 1GG#	4r	.
12c#/	.	.	.
12G#/J	.	.	.
4r	.	12e\L	.
.	.	12c#\	.
.	.	12g#\J	.
4r	.	12e\L	.
.	.	12cc#\	.
.	.	12g#\J	.
4r	.	12ee\L	.
.	.	12cc#\	.
.	.	12g#\J	.
*v	*v	*	*
=34	=34	=34
1GGG# 1GG#	(12c#/L	.
.	12f##/	.
.	12e/J	.
.	12a#\L	.
.	12f##\	.
.	12cc#\J	.
.	12a#\L	.
.	12ee\	.
.	12cc#\J	.
.	12ff##\L	.
.	12ee\	.
.	12aa#\J)	.
=35	=35	=35
[1GGG# [1GG#	12f#\L	.
.	12b#\	.
.	12an\J	.
.	12dd#\L	.
.	12b#\	.
.	12ff#\J	.
.	12dd#\L	.
.	12aan\	.
.	12ff#\J	.
.	12bb#\L	.
.	12aa\	.
.	12ddd#\J	.
=36	=36	=36
1GGG#_ 1GG#_	(12bb#\L	.
.	12ff#\	.
.	12aa\J	.
.	12dd#\L	.
.	12ff#\	.
.	12b#\J	.
.	12dd#\L	.
.	12a\	.
.	12b#\J	.
.	12f#/L	.
.	12a/	.
.	12d#/J	.
=37	=37	=37
1GGG#] 1GG#]	12f#/L	.
.	12B#/	.
.	12d#/J	.
.	12A/L	.
.	12B#/	.
.	12F#/J)	.
*	*^	*
.	(12A/L	12r	.
.	12D#/	6D#\	.
.	12F#/J	.	.
.	12C#/L	4C#\	.
.	12F#/	.	.
.	12A/J)	.	.
*	*v	*v	*
=38	=38	=38
*^	*	*
*	*^	*	*
12BB#/L	2BB#\	1GGG# 1GG#	1r	.
*	*v	*v	*	*
12F#/	.	.	.
12G#/J	.	.	.
12A/L	.	.	.
12G#/	.	.	.
12F#/J	.	.	.
12D#/L	(4D#\	.	.
12F#/	.	.	.
12A/J	.	.	.
12C#/L	4C#\)	.	.
12F#/	.	.	.
12A/J	.	.	.
*v	*v	*	*
=39	=39	=39
*^	*	*
*	*^	*	*
12BB#/L	2BB#\	1GGG# 1GG#	1r	.
*	*v	*v	*	*
12F#/	.	.	.
12G#/J	.	.	.
12A/L	.	.	.
12G#/	.	.	.
12F#/J	.	.	.
12Dn/L	(4Dn\	.	.
12F#/	.	.	.
12A/J	.	.	.
12C#/L)	4C#\	.	.
12F#/	.	.	.
12A/J	.	.	.
*v	*v	*	*
=40	=40	=40
*^	*	*
*	*^	*	*
12BB#/L	2BB#\	(2GGG#\ 2GG#\	1r	.
*	*v	*v	*	*
12F#/	.	.	.
12G#/J	.	.	.
12A/L	.	.	.
12G#/	.	.	.
12F#/J	.	.	.
12C#/L	2AAA\ 2AA\	.	.
12E/	.	.	.
12c#/J	.	.	.
12C#/L	.	.	.
12E/	.	.	.
12c#/J	.	.	.
=41	=41	=41	=41
12D#/L	2FFF#\ 2FF#\	1r	.
12A/	.	.	.
12c#/J	.	.	.
12D#/L	.	.	.
12A/	.	.	.
12c#/J	.	.	.
12D#/L	2GGG#\) 2GG#\	.	.
12G#/	.	.	.
12B#/J	.	.	.
12D#/L	.	.	.
12F#/	.	.	.
12B#/J	.	.	.
=42	=42	=42	=42
*	*	*^	*
12E/L	1CC# 1GG# 1C#	4r	4r	pp
12G#/	.	.	.	.
12c#/J	.	.	.	.
4r	.	4r	12G#\L	.
.	.	.	12c#\	.
.	.	.	12e\J	.
4r	.	4r	12G#\L	.
.	.	.	12c#\	.
.	.	.	12e\J	.
4r	.	8.g#/L	12G#\L	pp
.	.	.	12c#\	.
.	.	.	12e\J	.
.	.	16g#/Jk	.	.
*v	*v	*	*	*
=43	=43	=43	=43
1BBB# 1GG# 1BB#	2.g#/	12G#\L	.
.	.	12d#\	.
.	.	12f#\J	.
.	.	12G#\L	.
.	.	12d#\	.
.	.	12f#\J	.
.	.	12G#\L	.
.	.	12d#\	.
.	.	12f#\J	.
.	8.g#/L	12G#\L	.
.	.	12d#\	.
.	.	12f#\J	.
.	16g#/Jk	.	.
=44	=44	=44	=44
2CC#/ 2C#/	(2g#/	12G#\L	.
.	.	12c#\	.
.	.	12e\J	.
.	.	12G#\L	.
.	.	12c#\	.
.	.	12e\J	.
2FFF#/ 2FF#/	2a/	12A\L	.
.	.	12c#\	.
.	.	12f#\J	.
.	.	12A\L	.
.	.	12c#\	.
.	.	12f#\J	.
=45	=45	=45	=45
2BBB/ 2BB/	2g#/	12G#\L	.
.	.	12B\	.
.	.	12e\J	.
.	.	12G#\L	.
.	.	12B\	.
.	.	12e\J	.
2BBB/ 2BB/	4f#/	12A\L	.
.	.	12B\	.
.	.	12d#\J	.
.	4b/	12A\L	.
.	.	12B\	.
.	.	12d#\J	.
=46	=46	=46	=46
1EE 1E	4e/)	12G#\L	.
.	.	12B\	.
.	.	12e\J	.
.	4r	12B\L	.
.	.	12e\	.
.	.	12g#\J	.
.	4r	12B\L	.
.	.	12e\	.
.	.	12g#\J	.
.	8.b/L	12B\L	.
.	.	12e\	.
.	.	12g#\J	.
.	16b/Jk	.	.
=47	=47	=47	=47
1DD# 1D#	2.b/	12B\L	.
.	.	12f#\	.
.	.	12a\J	.
.	.	12B\L	.
.	.	12f#\	.
.	.	12a\J	.
.	.	12B\L	.
.	.	12f#\	.
.	.	12a\J	.
.	8.b/L	12B\L	.
.	.	12f#\	.
.	.	12a\J	.
.	16b/Jk	.	.
=48	=48	=48	=48
(2EE/ 2E/	(2b/	12A\L	.
.	.	12e\	.
.	.	12g#\J	.
.	.	12B\L	.
.	.	12e\	.
.	.	12g#\J	.
*	*v	*v	*
*	*clefG2	*clefG2
*	*^	*
4DD#/ 4D#/	4b#/	12B#\L	.
.	.	12f#\	.
.	.	12g#\J	.
4CC#/) 4C#/	4cc#/)	12c#\L	.
.	.	12e\	.
.	.	12g#\J	.
=49	=49	=49	=49
2BBB#/ 2GG#/ 2BB#/	(2dd#/	12d#\L	p
.	.	12f#\	.
.	.	12g#\J	.
.	.	12d#\L	.
.	.	12f#\	.
.	.	12g#\J	.
2CC#/ 2GG#/ 2C#/	2ee/	12e\L	.
.	.	12g#\	.
.	.	12cc#\J	.
.	.	12e\L	.
.	.	12g#\	.
.	.	12cc#\J	.
=50	=50	=50	=50
(2FFF#/ 2FF#/	2ddn/	12dn\L	.
.	.	12f#\	.
.	.	12a\J	.
.	.	12d\L	.
.	.	12f#\	.
.	.	12a\J	.
2GGG#/) 2GG#/	2b#/)	12B#\L	.
.	.	12f#\	.
.	.	12g#\J	.
.	.	12B#\L	.
.	.	12f#\	.
.	.	12g#\J	.
=51	=51	=51	=51
[1CC# [1C#	2.cc#/	12c#\L	.
.	.	12e\	.
.	.	12g#\J	.
.	.	12c#\L	.
.	.	12e\	.
.	.	12g#\J	.
.	.	12c#\L	.
.	.	12e#\	.
.	.	12g#\J	.
.	(4cc#/	12c#\L	.
.	.	12e#\	.
.	.	12g#\J	.
=52	=52	=52	=52
4CC#/] 4C#/]	2.ddn/	12c#\L	.
.	.	12f#\	.
.	.	12a\J	.
(4FF#/ 4F#/	.	12c#\L	.
.	.	12f#\	.
.	.	12a\J	.
4AA/ 4A/	.	12c#\L	.
.	.	12f#\	.
.	.	12a\J	.
4FF#/) 4F#/	4b#/)	12c#\L	.
.	.	12f#\	.
.	.	12a\J	.
=53	=53	=53	=53
[1CC# [1C#	2.cc#/	12c#\L	.
.	.	12e#\	.
.	.	12g#\J	.
.	.	12c#\L	.
.	.	12e#\	.
.	.	12g#\J	.
.	.	12c#\L	.
.	.	12e#\	.
.	.	12g#\J	.
.	(4cc#/	12c#\L	.
.	.	12e#\	.
.	.	12g#\J	.
=54	=54	=54	=54
4CC#/] 4C#/]	2.ddn/	12c#\L	.
.	.	12f#\	.
.	.	12a\J	.
(4FF#/ 4F#/	.	12c#\L	.
.	.	12f#\	.
.	.	12a\J	.
4AA/ 4A/	.	12c#\L	.
.	.	12f#\	.
.	.	12a\J	.
4FF#/) 4F#/	4b#/)	12c#\L	.
.	.	12f#\	.
.	.	12a\J	.
=55	=55	=55	=55
2CC#/ 2C#/	2cc#/	12c#\L	.
.	.	12e#\	.
.	.	12g#\J	.
.	.	12c#\L	.
.	.	12e#\	.
.	.	12g#\J	.
2FFF#/ 2FF#/	2cc#/	12c#\L	.
.	.	12f#\	.
.	.	12a\J	.
.	.	12c#\L	.
.	.	12f#\	.
.	.	12a\J	.
=56	=56	=56	=56
2.DD#/ 2.D#/	2.b/	12B\L	.
.	.	12f#\	.
.	.	12a\J	.
.	.	12B\L	.
.	.	12f#\	.
.	.	12a\J	.
.	.	12B\L	.
.	.	12f#\	.
.	.	12a\J	.
4EE/ 4E/	4b/	12B\L	.
.	.	12e\	.
.	.	12g#\J	.
=57	=57	=57	=57
(4CC#/ 4C#/	4a/	12A\L	.
.	.	12e\	.
.	.	12g#\J	.
4DD#/ 4D#/	4a/	12A\L	.
.	.	12d#\	.
.	.	12f#\J	.
4BBB#/ 4BB#/	4g#/	12G#\L	.
.	.	12d#\	.
.	.	12f#\J	.
4CC#/) 4C#/	4g#/	12G#\L	.
.	.	12c#\	.
.	.	12e\J	.
=58	=58	=58	=58
(2AAA/ 2AA/	(2f#/	12F#\L	.
.	.	12c#\	.
.	.	12d#\J	.
.	.	12F#\L	.
.	.	12c#\	.
.	.	12d#\J	.
4GGG#/ 4GG#/	4g#/	12G#\L	.
.	.	12c#\	.
.	.	12d#\J	.
4FFF#/) 4FF#/	4a/)	12A\L	.
.	.	12c#\	.
.	.	12d#\J	.
=59	=59	=59	=59
2GGG#/ 2GG#/	2g#/	12G#\L	p
.	.	12c#\	.
.	.	12e\J	.
.	.	12G#\L	.
.	.	12c#\	.
.	.	12e\J	.
2GGG#/ 2GG#/	2g#/	12F#\L	.
.	.	12B#\	.
.	.	12d#\J	.
.	.	12F#\L	.
.	.	12B#\	.
.	.	12d#\J	.
*	*v	*v	*
=60	=60	=60
*^	*	*
*	*^	*	*
12E/L	2.GG#/	1CC#	4c#/	pp
12G#/	.	.	.	.
12c#/J	.	.	.	.
2ryy	.	.	12G#/L	.
.	.	.	12c#/	.
.	.	.	12e/J	.
.	.	.	12G#/L	.
.	.	.	12c#/	.
.	.	.	12e/J	.
4ryy	8.GG#/L	.	12G#/L	.
.	.	.	12c#/	.
.	.	.	12e/J	.
.	16GG#/Jk	.	.	.
*	*v	*v	*	*
=61	=61	=61	=61
[4GG#/	1BBB#	12G#/L	.
.	.	12d#/	.
.	.	12f#/J	.
4GG#/_	.	12G#/L	.
.	.	12d#/	.
.	.	12f#/J	.
4GG#/]	.	12G#/L	.
.	.	12d#/	.
.	.	12f#/J	.
8.GG#/L	.	12G#/L	.
.	.	12d#/	.
.	.	12f#/J	.
16GG#/Jk	.	.	.
=62	=62	=62	=62
2.GG#/]	1CC#	(12G#/L	.
.	.	12e/	.
.	.	12c#/J	.
.	.	12g#/L	.
.	.	12e/	.
.	.	12cc#/J	.
.	.	12g#\L	.
.	.	12ee\	.
.	.	12cc#\J	.
8.GG#/L	.	12gg#\L	.
.	.	12ee\	.
.	.	12cc#\J)	.
16GG#/Jk	.	.	.
=63	=63	=63	=63
*	*^	*	*
2.GG#/	2.ryy	1GGG#	12b#\L	.
.	.	.	12dd#\	.
.	.	.	12a\J	.
.	.	.	12b#/L	.
.	.	.	12f#/	.
.	.	.	12a/J	.
.	.	.	12d#/L	.
.	.	.	12f#/	.
.	.	.	12A/J	.
12A/L	8.GG#\L	.	4B#/	.
12G#/	.	.	.	.
12F#/J	.	.	.	.
.	16GG#\Jk	.	.	.
*	*v	*v	*	*
=64	=64	=64	=64
2.GG#/	1CC#	12E/L 12c#/L	.
.	.	12e/	.
.	.	12c#/J	.
.	.	12g#/L	.
.	.	12e/	.
.	.	12cc#/J	.
.	.	12g#\L	.
.	.	12ee\	.
.	.	12cc#\J	.
8.GG#/L	.	12gg#\L	.
.	.	12ee\	.
.	.	12cc#\J	.
16GG#/Jk	.	.	.
=65	=65	=65	=65
*^	*	*	*
12A/L	2.GG#/	1GGG#	12b#\L	.
12G#/	.	.	12dd#\	.
12F#/J	.	.	12a\J	.
2.ryy	.	.	12b#/L	.
.	.	.	12f#/	.
.	.	.	12a/J	.
.	.	.	12d#/L	.
.	.	.	12f#/	.
.	.	.	12A/J	.
.	8.GG#\L	.	4B#/	pp
.	16GG#\Jk	.	.	.
*v	*v	*	*	*
=66	=66	=66	=66
*^	*	*	*
12E/ (12c#/L	2GG#\	[1CC#	1r	.
12G#/	.	.	.	.
12c#/J	.	.	.	.
12e/L	.	.	.	.
12c#/	.	.	.	.
12G#/J	.	.	.	.
12r	2C#\)	.	.	.
(12E/L	.	.	.	.
12G#/J	.	.	.	.
12c#/L	.	.	.	.
12G#/	.	.	.	.
12E/J)	.	.	.	.
*v	*v	*	*	*
=67	=67	=67	=67
12r	2CC#\ 2GG#\	1r	.
12C#/L	.	.	.
12E/J	.	.	.
12G#/L	.	.	.
12E/	.	.	.
12C#/J	.	.	.
2r	(12GG#\L	.	.
.	12C#\	.	.
.	12GG#\J	.	.
.	12EE\L	.	.
.	12GG#\	.	.
.	12EE\J)	.	.
=68	=68	=68	=68
2r	2CC#\	1r	pp
2C#/ 2E/ 2G#/ 2c#/	2CC#\ 2GG#\	.	.
*v	*v	*	*
=69	=69	=69
1CC#; 1GG#; 1C#; 1E; 1G#; 1c#;	1r	.
==	==	==
*-	*-	*-
!!!ENC: Craig Stuart Sapp
!!!END: 2004/06/30/
!!!ONB: Not proof-read yet
